symbols/web/library_add_check/materialsymbolsoutlined/library_add_check_wght200grad200_48px.svg

<svg xmlns="http://www.w3.org/2000/svg" height="48" width="48"><path d="M24.5 27.2 35 16.75l-1.55-1.5-8.95 8.95-4.55-4.7-1.6 1.6Zm-9.4 8.45q-1.4 0-2.4-1t-1-2.4V8.65q0-1.35 1-2.375t2.4-1.025h23.6q1.35 0 2.375 1.025T42.1 8.65v23.6q0 1.4-1.025 2.4t-2.375 1Zm0-2.15h23.6q.45 0 .825-.4.375-.4.375-.85V8.65q0-.45-.375-.825-.375-.375-.825-.375H15.1q-.45 0-.85.375-.4.375-.4.825v23.6q0 .45.4.85.4.4.85.4Zm-5.75 7.9q-1.4 0-2.4-1.025T5.95 38V12.2h2.2V38q0 .45.375.825.375.375.825.375h25.8v2.2Zm4.5-33.95V33.5 7.45Z"/></svg>

<svg xmlns="http://www.w3.org/2000/svg" height="48" width="48"><path d="M24.5 27.2 35 16.75 33.45 15.25 24.5 24.2 19.95 19.5 18.35 21.1ZM15.1 35.65Q13.7 35.65 12.7 34.65Q11.7 33.65 11.7 32.25V8.65Q11.7 7.3 12.7 6.275Q13.7 5.25 15.1 5.25H38.7Q40.05 5.25 41.075 6.275Q42.1 7.3 42.1 8.65V32.25Q42.1 33.65 41.075 34.65Q40.05 35.65 38.7 35.65ZM15.1 33.5H38.7Q39.15 33.5 39.525 33.1Q39.9 32.7 39.9 32.25V8.65Q39.9 8.2 39.525 7.825Q39.15 7.45 38.7 7.45H15.1Q14.65 7.45 14.25 7.825Q13.85 8.2 13.85 8.65V32.25Q13.85 32.7 14.25 33.1Q14.65 33.5 15.1 33.5ZM13.85 7.45Q13.85 7.45 13.85 7.8Q13.85 8.15 13.85 8.65V32.25Q13.85 32.8 13.85 33.15Q13.85 33.5 13.85 33.5Q13.85 33.5 13.85 33.15Q13.85 32.8 13.85 32.25V8.65Q13.85 8.15 13.85 7.8Q13.85 7.45 13.85 7.45ZM9.35 41.4Q7.95 41.4 6.95 40.375Q5.95 39.35 5.95 38V12.2H8.15V38Q8.15 38.45 8.525 38.825Q8.9 39.2 9.35 39.2H35.15V41.4Z"/></svg>
